SVG_Azure_All/App Task.svg

<?xml version="1.0" encoding="UTF-8" standalone="no"?>
<!-- Generated by Microsoft Visio, SVG Export App Task.svg Page-1 -->

<svg
   xmlns:dc="http://purl.org/dc/elements/1.1/"
   xmlns:cc="http://creativecommons.org/ns#"
   xmlns:rdf="http://www.w3.org/1999/02/22-rdf-syntax-ns#"
   xmlns:svg="http://www.w3.org/2000/svg"
   xmlns="http://www.w3.org/2000/svg"
   xmlns:xlink="http://www.w3.org/1999/xlink"
   xmlns:sodipodi="http://sodipodi.sourceforge.net/DTD/sodipodi-0.dtd"
   xmlns:inkscape="http://www.inkscape.org/namespaces/inkscape"
   width="0.78741843in"
   height="0.78736162in"
   viewBox="0 0 56.6942 56.690036"
   xml:space="preserve"
   class="st5"
   version="1.1"
   id="svg52"
   sodipodi:docname="App Task.svg"
   style="font-size:12px;overflow:visible;color-interpolation-filters:sRGB;fill:none;fill-rule:evenodd;stroke-linecap:square;stroke-miterlimit:3"
   inkscape:version="0.92.5 (2060ec1f9f, 2020-04-08)"><metadata
   id="metadata56"><rdf:RDF><cc:Work
       rdf:about=""><dc:format>image/svg+xml</dc:format><dc:type
         rdf:resource="http://purl.org/dc/dcmitype/StillImage" /></cc:Work></rdf:RDF></metadata><sodipodi:namedview
   pagecolor="#ffffff"
   bordercolor="#666666"
   borderopacity="1"
   objecttolerance="10"
   gridtolerance="10"
   guidetolerance="10"
   inkscape:pageopacity="0"
   inkscape:pageshadow="2"
   inkscape:window-width="640"
   inkscape:window-height="480"
   id="namedview54"
   showgrid="false"
   inkscape:zoom="1.4473555"
   inkscape:cx="37.795551"
   inkscape:cy="36.17103"
   inkscape:window-x="0"
   inkscape:window-y="0"
   inkscape:window-maximized="0"
   inkscape:current-layer="svg52" />
	<style
   type="text/css"
   id="style2">
	<![CDATA[
		.st1 {fill:#50e6ff;stroke:none;stroke-linecap:butt;stroke-width:31.5833}
		.st2 {fill:#0078d4;stroke:none;stroke-linecap:butt;stroke-width:31.5833}
		.st3 {fill:#ffffff;stroke:none;stroke-linecap:butt;stroke-width:31.5833}
		.st4 {fill:url(#grad0-12);stroke:none;stroke-linecap:butt;stroke-width:31.5833}
		.st5 {fill:none;fill-rule:evenodd;font-size:12px;overflow:visible;stroke-linecap:square;stroke-miterlimit:3}
	]]>
	</style>

	<defs
   id="Patterns_And_Gradients">
		<linearGradient
   id="grad0-12"
   x1="0"
   y1="0"
   x2="1"
   y2="0"
   gradientTransform="rotate(-90,0.5,0.5)">
			<stop
   offset="0"
   stop-color="#76bc2d"
   stop-opacity="1"
   id="stop4" />
			<stop
   offset="0.6"
   stop-color="#81ce31"
   stop-opacity="1"
   id="stop6" />
			<stop
   offset="0.82"
   stop-color="#86d633"
   stop-opacity="1"
   id="stop8" />
		</linearGradient>
	<linearGradient
   inkscape:collect="always"
   xlink:href="#grad0-12"
   id="linearGradient4566"
   gradientTransform="scale(1.0128141,0.98734801)"
   x1="0"
   y1="108.54328"
   x2="15.313768"
   y2="108.54328"
   gradientUnits="userSpaceOnUse" /><linearGradient
   inkscape:collect="always"
   xlink:href="#grad0-12"
   id="linearGradient4568"
   gradientTransform="scale(1.0128141,0.98734801)"
   x1="0"
   y1="108.54328"
   x2="15.313768"
   y2="108.54328"
   gradientUnits="userSpaceOnUse" /><linearGradient
   inkscape:collect="always"
   xlink:href="#grad0-12"
   id="linearGradient4570"
   gradientTransform="scale(1.0128141,0.98734801)"
   x1="0"
   y1="108.54328"
   x2="15.313768"
   y2="108.54328"
   gradientUnits="userSpaceOnUse" /></defs>
	<g
   id="g50"
   transform="translate(-31.5833,-31.584278)">
		<title
   id="title12">Page-1</title>
		<g
   id="group9879-1"
   transform="translate(31.5833,-34.0157)">
			<title
   id="title14">App Task</title>
			<g
   id="group9880-2">
				<title
   id="title16">MsPortalFx.base.images-46</title>
				<g
   id="shape9881-3"
   transform="translate(5.39025,-14.8661)">
					<title
   id="title18">path4</title>
					<path
   d="M 43.98,105.25 H 26.35 a 0.946281,0.922835 0 0 1 -0.946281,-0.92284 L 25.41,97.76 h -4.74 v 6.56 a 0.949511,0.925984 0 0 1 -0.946281,0.92283 L 1.9,105.25 A 1.89579,1.84882 -180 0 0 0,107.1 v 8.5 h 4.73 v -4.73 a 0.949511,0.925984 0 0 1 0.949511,-0.92284 L 20.67,109.95 v 12.34 h 4.74 v -12.32 h 14.78 a 0.946281,0.922835 0 0 1 0.946281,0.92284 L 41.14,115.71 h 4.75 v -8.61 a 1.89579,1.84882 -180 0 0 -1.91,-1.85 z"
   class="st1"
   id="path20"
   inkscape:connector-curvature="0"
   style="fill:#50e6ff;stroke:none;stroke-width:31.58329964;stroke-linecap:butt" />
				</g>
				<g
   id="shape9882-5"
   transform="translate(18.7512,-38.1701)">
					<title
   id="title23">rect6</title>
					<path
   d="m 0,120.62 a 1.7182,1.67563 -180 0 0 1.72,1.67 h 15.56 a 1.7182,1.67563 -180 0 0 1.71,-1.67 v -15.18 a 1.7182,1.67563 -180 0 0 -1.71,-1.67 H 1.72 A 1.7182,1.67563 -180 0 0 0,105.44 Z"
   class="st2"
   id="path25"
   inkscape:connector-curvature="0"
   style="fill:#0078d4;stroke:none;stroke-width:31.58329964;stroke-linecap:butt" />
				</g>
				<g
   id="shape9883-7"
   transform="translate(22.3975,-41.726)">
					<title
   id="title28">rect8</title>
					<path
   d="m 0,121.26 a 1.05934,1.03309 -180 0 0 1.06,1.03 h 9.58 a 1.05934,1.03309 -180 0 0 1.06,-1.03 v -9.34 a 1.05934,1.03309 -180 0 0 -1.06,-1.04 H 1.06 A 1.05934,1.03309 -180 0 0 0,111.92 Z"
   class="st3"
   id="path30"
   inkscape:connector-curvature="0"
   style="fill:#ffffff;stroke:none;stroke-width:31.58329964;stroke-linecap:butt" />
				</g>
				<g
   id="shape9884-9"
   transform="translate(0,-6.39685)">
					<title
   id="title33">rect10</title>
					<path
   d="m 0,120.92 a 1.40492,1.37011 -180 0 0 1.4,1.37 h 12.7 a 1.40492,1.37011 -180 0 0 1.41,-1.37 V 108.54 A 1.40492,1.37011 -180 0 0 14.1,107.17 H 1.4 A 1.40492,1.37011 -180 0 0 0,108.54 Z"
   class="st4"
   id="path35"
   inkscape:connector-curvature="0"
   style="fill:url(#linearGradient4566);stroke:none;stroke-width:31.58329964;stroke-linecap:butt" />
				</g>
				<g
   id="shape9885-13"
   transform="translate(20.6729)">
					<title
   id="title38">rect12</title>
					<path
   d="m 0,120.92 a 1.40492,1.37011 -180 0 0 1.4,1.37 h 12.7 a 1.40492,1.37011 -180 0 0 1.41,-1.37 V 108.54 A 1.40492,1.37011 -180 0 0 14.1,107.17 H 1.4 A 1.40492,1.37011 -180 0 0 0,108.54 Z"
   class="st4"
   id="path40"
   inkscape:connector-curvature="0"
   style="fill:url(#linearGradient4568);stroke:none;stroke-width:31.58329964;stroke-linecap:butt" />
				</g>
				<g
   id="shape9886-16"
   transform="translate(41.1842,-6.29606)">
					<title
   id="title43">rect14</title>
					<path
   d="m 0,120.92 a 1.40492,1.37011 -180 0 0 1.4,1.37 h 12.7 a 1.40492,1.37011 -180 0 0 1.41,-1.37 V 108.54 A 1.40492,1.37011 -180 0 0 14.1,107.17 H 1.4 A 1.40492,1.37011 -180 0 0 0,108.54 Z"
   class="st4"
   id="path45"
   inkscape:connector-curvature="0"
   style="fill:url(#linearGradient4570);stroke:none;stroke-width:31.58329964;stroke-linecap:butt" />
				</g>
			</g>
		</g>
	</g>
</svg>

<?xml version="1.0" encoding="UTF-8" standalone="no"?>
<!DOCTYPE svg PUBLIC "-//W3C//DTD SVG 1.1//EN" "http://www.w3.org/Graphics/SVG/1.1/DTD/svg11.dtd">
<!-- Generated by Microsoft Visio, SVG Export App Task.svg Page-1 -->
<svg xmlns="http://www.w3.org/2000/svg" xmlns:xlink="http://www.w3.org/1999/xlink" xmlns:ev="http://www.w3.org/2001/xml-events"
		width="1.66472in" height="1.6985in" viewBox="0 0 119.86 122.292" xml:space="preserve" color-interpolation-filters="sRGB"
		class="st5">
	<style type="text/css">
	<![CDATA[
		.st1 {fill:#50e6ff;stroke:none;stroke-linecap:butt;stroke-width:31.5833}
		.st2 {fill:#0078d4;stroke:none;stroke-linecap:butt;stroke-width:31.5833}
		.st3 {fill:#ffffff;stroke:none;stroke-linecap:butt;stroke-width:31.5833}
		.st4 {fill:url(#grad0-12);stroke:none;stroke-linecap:butt;stroke-width:31.5833}
		.st5 {fill:none;fill-rule:evenodd;font-size:12px;overflow:visible;stroke-linecap:square;stroke-miterlimit:3}
	]]>
	</style>

	<defs id="Patterns_And_Gradients">
		<linearGradient id="grad0-12" x1="0" y1="0" x2="1" y2="0" gradientTransform="rotate(-90 0.5 0.5)">
			<stop offset="0" stop-color="#76bc2d" stop-opacity="1"/>
			<stop offset="0.6" stop-color="#81ce31" stop-opacity="1"/>
			<stop offset="0.82" stop-color="#86d633" stop-opacity="1"/>
		</linearGradient>
	</defs>
	<g>
		<title>Page-1</title>
		<g id="group9674-1" transform="translate(31.5833,-34.0157)">
			<title>App Task</title>
			<g id="group9675-2">
				<title>MsPortalFx.base.images-46</title>
				<g id="shape9676-3" transform="translate(5.39025,-14.8661)">
					<title>path4</title>
					<path d="M43.98 105.25 L26.35 105.25 a0.946281 0.922835 0 0 1 -0.946281 -0.922835 L25.41 97.76 L20.67 97.76 L20.67
								 104.32 a0.949511 0.925984 0 0 1 -0.946281 0.922835 L1.9 105.25 A1.89579 1.84882 -180 0 0 -0 107.1
								 L0 115.6 L4.73 115.6 L4.73 110.87 a0.949511 0.925984 0 0 1 0.949511 -0.922835 L20.67 109.95 L20.67
								 122.29 L25.41 122.29 L25.41 109.97 L40.19 109.97 a0.946281 0.922835 0 0 1 0.946281 0.922835 L41.14
								 115.71 L45.89 115.71 L45.89 107.1 A1.89579 1.84882 -180 0 0 43.98 105.25 Z" class="st1"/>
				</g>
				<g id="shape9677-5" transform="translate(18.7512,-38.1701)">
					<title>rect6</title>
					<path d="M0 120.62 A1.7182 1.67563 -180 0 0 1.72 122.29 L17.28 122.29 A1.7182 1.67563 -180 0 0 18.99 120.62 L18.99
								 105.44 A1.7182 1.67563 -180 0 0 17.28 103.77 L1.72 103.77 A1.7182 1.67563 -180 0 0 -0 105.44 L0
								 120.62 Z" class="st2"/>
				</g>
				<g id="shape9678-7" transform="translate(22.3975,-41.726)">
					<title>rect8</title>
					<path d="M-0 121.26 A1.05934 1.03309 -180 0 0 1.06 122.29 L10.64 122.29 A1.05934 1.03309 -180 0 0 11.7 121.26
								 L11.7 111.92 A1.05934 1.03309 -180 0 0 10.64 110.88 L1.06 110.88 A1.05934 1.03309 -180 0 0 -0 111.92
								 L0 121.26 Z" class="st3"/>
				</g>
				<g id="shape9679-9" transform="translate(0,-6.39685)">
					<title>rect10</title>
					<path d="M0 120.92 A1.40492 1.37011 -180 0 0 1.4 122.29 L14.1 122.29 A1.40492 1.37011 -180 0 0 15.51 120.92 L15.51
								 108.54 A1.40492 1.37011 -180 0 0 14.1 107.17 L1.4 107.17 A1.40492 1.37011 -180 0 0 0 108.54 L0 120.92
								 Z" class="st4"/>
				</g>
				<g id="shape9680-13" transform="translate(20.6729,1.42109E-14)">
					<title>rect12</title>
					<path d="M0 120.92 A1.40492 1.37011 -180 0 0 1.4 122.29 L14.1 122.29 A1.40492 1.37011 -180 0 0 15.51 120.92 L15.51
								 108.54 A1.40492 1.37011 -180 0 0 14.1 107.17 L1.4 107.17 A1.40492 1.37011 -180 0 0 0 108.54 L0 120.92
								 Z" class="st4"/>
				</g>
				<g id="shape9681-16" transform="translate(41.1842,-6.29606)">
					<title>rect14</title>
					<path d="M0 120.92 A1.40492 1.37011 -180 0 0 1.4 122.29 L14.1 122.29 A1.40492 1.37011 -180 0 0 15.51 120.92 L15.51
								 108.54 A1.40492 1.37011 -180 0 0 14.1 107.17 L1.4 107.17 A1.40492 1.37011 -180 0 0 0 108.54 L0 120.92
								 Z" class="st4"/>
				</g>
			</g>
		</g>
	</g>
</svg>
